**kern	**silbe
*ICvox	*
*C:	*
*M4/4	*
*clefG2	*
r;	.
=1	=1
1r	.
=2	=2
1r	.
=3	=3
1r	.
=4	=4
1r	.
=5	=5
1r	.
=6	=6
1r	.
=7	=7
1r	.
=8	=8
1r	.
=9	=9
1r	.
=10	=10
1r	.
=11	=11
1r	.
=12	=12
1r	.
=13	=13
1r	.
=14	=14
1r	.
=15	=15
1r	.
=16	=16
1r	.
=17	=17
2r	.
8A	Wai-
4B	-ting
8[c	for
=18	=18
8c]	_
4d	the
4e	break
4g	of
8[a	day.
=19	=19
4.a]	_
2r	.
8r	.
=20	=20
1r	.
=21	=21
2r	.
8A	Search-
4B	-ing
8[c	for
=22	=22
8c]	_
4d	some-
4e	-thing
4g	to
8[a	say.
=23	=23
8a]	_
4a	_
2r	.
8r	.
=24	=24
1r	.
=25	=25
2r	.
8a	Fla-
4b	-shing
8[cc	lights
=26	=26
8cc]	_
4b	a-
4a	-gainst
4b	the
8[a	sky.
=27	=27
2a]	_
2e	_
=28	=28
1r	.
=29	=29
2r	.
8A	Giv-
4B	-ing
8[c	up
=30	=30
8c]	_
4d	I
4e	close
4g	my
8[a	eyes.
=31	=31
8a]	_
8.a	_
16g	_
8e	_
2r	.
=32	=32
1r	.
=33	=33
2r	.
8a	Sit-
4b	-ting
8[cc	cross-
=34	=34
8cc]	_
4b	-legged
4a	on
4b	the
8[g	floor.
=35	=35
1g_	_
=36	=36
2g]	_
2r	.
=37	=37
2r	.
8g	Twen-
4a	-ty-
8[g	-five
=38	=38
8g]	_
4f	or
4e	six
4g	to
8[f	four.
=39	=39
1f]	_
=40	=40
2.a	_
4r	.
=41	=41
1r	.
=42	=42
1r	.
=43	=43
1r	.
=44	=44
1r	.
=45	=45
1r	.
=46	=46
1r	.
=47	=47
1r	.
=48	=48
1r	.
=49	=49
2r	.
8A	Star-
4B	-ing
8[c	blind-
=50	=50
8c]	_
4d	-ly
4e	in-
4g	-to
8[a	space.
=51	=51
4.a]	_
2r	.
8r	.
=52	=52
1r	.
=53	=53
2r	.
8A	Get-
4B	-ting
8[c	up
=54	=54
8c]	_
4d	to
4e	splash
4g	my
8[a	face.
=55	=55
2a]	_
2r	.
=56	=56
1r	.
=57	=57
2r	.
8a	Wan-
4b	-ting
8[cc	just
=58	=58
8cc]	_
4b	to
4a	stay
4b	a-
8[a	-wake.
=59	=59
2a]	_
2e	_
=60	=60
1r	.
=61	=61
2r	.
8A	Won-
4B	-dering
8[c	how
=62	=62
8c]	_
4d	much
4e	I
4g	can
8[a	take.
=63	=63
8a]	_
8.a	_
16g	_
8e	_
2r	.
=64	=64
1r	.
=65	=65
2r	.
8a	Shoudl
4b	I
8[cc	try
=66	=66
8cc]	_
4b	to
4a	do
4b	some
8[g	more?.
=67	=67
1g_	_
=68	=68
2g]	_
2r	.
=69	=69
2r	.
8g	Twen-
4a	-ty-
8[g	-five
=70	=70
8g]	_
4f	or
4e	six
4g	to
8[f	four
=71	=71
2f]	_
2a	_
=72	=72
1[cc	_
=73	=73
8cc]	_
4a	yeah.
2r	.
8r	.
=74	=74
1r	.
=75	=75
1r	.
=76	=76
1r	.
=77	=77
1r	.
=78	=78
1r	.
=79	=79
1r	.
=80	=80
1r	.
=81	=81
1r	.
=82	=82
1r	.
=83	=83
1r	.
=84	=84
1r	.
=85	=85
1r	.
=86	=86
1r	.
=87	=87
1r	.
=88	=88
1r	.
=89	=89
1r	.
=90	=90
1r	.
=91	=91
1r	.
=92	=92
1r	.
=93	=93
1r	.
=94	=94
1r	.
=95	=95
1r	.
=96	=96
1r	.
=97	=97
1r	.
=98	=98
1r	.
=99	=99
1r	.
=100	=100
1r	.
=101	=101
1r	.
=102	=102
1r	.
=103	=103
1r	.
=104	=104
1r	.
=105	=105
1r	.
=106	=106
1r	.
=107	=107
1r	.
=108	=108
1r	.
=109	=109
1r	.
=110	=110
1r	.
=111	=111
1r	.
=112	=112
1r	.
=113	=113
1r	.
=114	=114
1r	.
=115	=115
1r	.
=116	=116
1r	.
=117	=117
1r	.
=118	=118
1r	.
=119	=119
1r	.
=120	=120
1r	.
=121	=121
1r	.
=122	=122
1r	.
=123	=123
1r	.
=124	=124
1r	.
=125	=125
1r	.
=126	=126
1r	.
=127	=127
1r	.
=128	=128
1r	.
=129	=129
1r	.
=130	=130
1r	.
=131	=131
1r	.
=132	=132
1r	.
=133	=133
1r	.
=134	=134
1r	.
=135	=135
1r	.
=136	=136
1r	.
=137	=137
2r	.
8A	Fee-
4B	-ling
8[c	like
=138	=138
8c]	_
4d	I
4e	ought
4g	to
8[a	sleep.
=139	=139
8a]	_
8.a	_
16g	_
8e	_
2r	.
=140	=140
1r	.
=141	=141
2r	.
8A	Spin-
4B	-ning
8[c	room
=142	=142
8c]	_
4d	is
4e	sink-
4g	-ing
8[a	deep.
=143	=143
8a]	_
8.a	_
16g	_
8e	_
2r	.
=144	=144
1r	.
=145	=145
2r	.
8a	Sear-
4b	-ching
8[cc	for
=146	=146
8cc]	_
4b	some-
4a	-thing
4b	to
8[a	say.
=147	=147
2a]	_
2e	_
=148	=148
1r	.
=149	=149
2r	.
8A	Wait-
4B	-ing
8[c	for
=150	=150
8c]	_
4d	the
4e	break
4g	of
8[a	day.
=151	=151
8a]	_
8.a	_
16g	_
8e	_
2r	.
=152	=152
6cc	Hoo.
6a	_
6a	_
4a	_
16a	_
16g	_
8e	_
=153	=153
2r	.
8a	Twen-
4b	-ty-
8[cc	-five
=154	=154
8cc]	_
4b	or
4a	six
4b	to
8[g	four.
=155	=155
1g_	_
=156	=156
2g]	_
2r	.
=157	=157
2r	.
8g	Twen-
4a	-ty-
8[g	-five
=158	=158
8g]	_
4f	or
4e	six
4g	to
8[f	four.
=159	=159
2f]	_
2a	_
=160	=160
1[cc	All-
=161	=161
4cc]	_
4a	-right.
2r	.
=162	=162
1r	.
=163	=163
1r	.
=164	=164
1r	.
=165	=165
1r	.
=166	=166
1r	.
=167	=167
1r	.
=168	=168
1r	.
=169	=169
1r	.
=170	=170
1r	.
=171	=171
1r	.
=172	=172
1r	.
=173	=173
1r	.
=174	=174
1r	.
=175	=175
1r	.
r;	.
r;	.
*-	*-
!!!ENC: Nathaniel Condit-Schultz